src/icons/28/Credit Card Fill.svg

<svg fill="none" height="36" viewBox="0 0 36 36" width="36" xmlns="http://www.w3.org/2000/svg"><g fill="#000"><path d="m3.85911 12.8571c.01041-1.4977.07056-2.3545.41823-3.03678.36979-.72577.95986-1.31584 1.68563-1.68564.82509-.4204 1.90519-.4204 4.06543-.4204h15.9428c2.1602 0 3.2403 0 4.0654.4204.7258.3698 1.3158.95987 1.6856 1.68564.3477.68228.4079 1.53908.4183 3.03678z"/><path clip-rule="evenodd" d="m3.85693 15.4286v6.6857c0 2.1602 0 3.2403.42041 4.0654.36979.7257.95986 1.3158 1.68563 1.6856.82509.4204 1.90519.4204 4.06543.4204h15.9428c2.1602 0 3.2403 0 4.0654-.4204.7258-.3698 1.3158-.9599 1.6856-1.6856.4204-.8251.4204-1.9052.4204-4.0654v-6.6857zm3.85715 7.0714c0-.5991 0-.8986.09787-1.1349.13049-.315.38078-.5653.69582-.6958.23628-.0979.53581-.0979 1.13488-.0979h1.28575c.599 0 .8986 0 1.1348.0979.3151.1305.5654.3808.6959.6958.0978.2363.0978.5358.0978 1.1349s0 .8986-.0978 1.1349c-.1305.315-.3808.5653-.6959.6958-.2362.0979-.5358.0979-1.1348.0979h-1.28575c-.59907 0-.8986 0-1.13488-.0979-.31504-.1305-.56533-.3808-.69582-.6958-.09787-.2363-.09787-.5358-.09787-1.1349z" fill-rule="evenodd"/></g></svg>

<svg width="36" height="36" viewBox="0 0 36 36" fill="none" xmlns="http://www.w3.org/2000/svg">
<path d="M3.85911 12.8571C3.86952 11.3594 3.92967 10.5026 4.27734 9.82032C4.64713 9.09455 5.2372 8.50448 5.96297 8.13468C6.78806 7.71428 7.86816 7.71428 10.0284 7.71428H25.9712C28.1314 7.71428 29.2115 7.71428 30.0366 8.13468C30.7624 8.50448 31.3524 9.09455 31.7222 9.82032C32.0699 10.5026 32.1301 11.3594 32.1405 12.8571H3.85911Z" fill="black"/>
<path fill-rule="evenodd" clip-rule="evenodd" d="M3.85693 15.4286V22.1143C3.85693 24.2745 3.85693 25.3546 4.27734 26.1797C4.64713 26.9054 5.2372 27.4955 5.96297 27.8653C6.78806 28.2857 7.86816 28.2857 10.0284 28.2857H25.9712C28.1314 28.2857 29.2115 28.2857 30.0366 27.8653C30.7624 27.4955 31.3524 26.9054 31.7222 26.1797C32.1426 25.3546 32.1426 24.2745 32.1426 22.1143V15.4286H3.85693ZM7.71408 22.5C7.71408 21.9009 7.71408 21.6014 7.81195 21.3651C7.94244 21.0501 8.19273 20.7998 8.50777 20.6693C8.74405 20.5714 9.04358 20.5714 9.64265 20.5714H10.9284C11.5274 20.5714 11.827 20.5714 12.0632 20.6693C12.3783 20.7998 12.6286 21.0501 12.7591 21.3651C12.8569 21.6014 12.8569 21.9009 12.8569 22.5C12.8569 23.0991 12.8569 23.3986 12.7591 23.6349C12.6286 23.9499 12.3783 24.2002 12.0632 24.3307C11.827 24.4286 11.5274 24.4286 10.9284 24.4286H9.64265C9.04358 24.4286 8.74405 24.4286 8.50777 24.3307C8.19273 24.2002 7.94244 23.9499 7.81195 23.6349C7.71408 23.3986 7.71408 23.0991 7.71408 22.5Z" fill="black"/>
</svg>
